!!!SOCIAL_FUNCTION:	war songs
!!!PDT:	1943
!!!OTL: No_28_Song_When_Returning_From_War.krn
!!!REG: British Columbia
**kern	**kern
*staff2	*staff1
=1-	=1-
*clefF4	*clefF4
*k[b-]	*k[b-]
*M2/4	*M2/4
12GG/L	4r
12GG/	.
12GG/J	.
12GG/L	4D\
12GG/	.
12GG/J	.
=2!|:	=2!|:
12GG/L	8d\L
12GG/	.
.	8d\J
12GG/J	.
4r	8d\L
.	8c\J
=3	=3
2r	4.d\
.	8A\
=4	=4
2r	4A\
.	4A\
=5	=5
2r	8e\L
.	8d\J
.	8d\
.	8r
=6	=6
2r	4.d\
.	8c\
=7||	=7||
*M3/4	*M3/4
2.r	8c\L
.	8d\J
.	8d\L
.	8c\J
.	4c\
=8||	=8||
*M2/4	*M2/4
2r	4.A\
.	8G\
=9	=9
2r	8G\
.	8r
.	4G\
=10	=10
2r	8c\L
.	8A\J
.	8A\L
.	8E\J
=11	=11
2r	4.A\
.	8E\
=12||	=12||
*M3/4	*M3/4
2.r	8E\L
.	8A\J
.	8G\L
.	8E\J
.	8E\
.	8r
=13||	=13||
*M2/4	*M2/4
2r	4.D\
.	16E/LL
.	16C/JJ
=14	=14
2r	4AA/
.	4AA/
=15	=15
2r	8E\L
.	8D\J
.	8D\
.	8r
=16	=16
2r	4D\
.	8D\L
.	8D\J
=17	=17
2r	4D\
.	4D\
=18:|!	=18:|!
2r	4D\
.	4r
==	==
*-	*-
